X:1
T:Title
%%score [ ( 1 2 ) ( 3 4 ) ] { ( 5 6 ) | ( 7 8 ) }
L:1/8
Q:1/4=120
M:4/4
K:D
V:1 treble nm="Midi_74"
V:2 treble 
V:3 bass nm="Midi_74"
V:4 bass 
V:5 treble nm="Org."
V:6 treble 
V:7 bass 
V:8 bass 
V:1
 B8 | B4 ^A4 | B8 || =A8 | ^G4 F4 | F4 ^E4 | F8 || d8 | c4 d4 | ^A8 || F8 | f4 e4 | %12
"^John Camidge\n(1790-1859)" d4 c4 | B8 |] %14
V:2
 F8 | G4 (F2 E2) | D8 || C8 | B,4 A,4 | ^G,4 G,4 | A,8 || F8 | E4 D4 | C8 || C8 | D4 C4 | D4 E4 | %13
 D8 |] %14
V:3
 D8 | C4 C4 | B,8 || F,8 | D,4 ^D,4 | C,4 B,4 | A,8 || A,8 | G,4 F,4 | F,8 || F,8 | F,4 G,4 | %12
 B,4 ^A,4 | B,8 |] %14
V:4
 B,,8 | E,4 F,4 | B,,8 || F,,8 | B,,4 ^B,,4 | C,4 C,4 | F,8 || D,8 | A,,4 B,,4 | F,,8 || ^A,,8 | %11
 B,,4 E,4 | F,4 [F,,F,]4 | B,,8 |] %14
V:5
 B8 | B4 [C^A]4 | B8 || =A8 | ^G4 F4 | F4 ^E4 | F8 || d8 | c4 d4 | ^A8 || F8 | f4 e4 | d4 c4 | %13
 B8 |] %14
V:6
 [DF]8 | [CG]4 F2 E2 | D8 || C8 | [B,D]4 [A,^D]4 | [^G,C]4 [G,B,C]4 | [A,C]8 || [DFA]8 | %8
 [EG]4 [DF]4 | [CF]8 || C6 E2 | [Fd]4 [Gc]4 | [FB]4 [EF^A]4 | [DF]8 |] %14
V:7
 x8 |"^One discrepancy: bar 6 beat 1 A in organ part rather than G#." x8 | x8 || x8 | x8 | x8 | %6
 x8 || x8 | x8 | x8 || x8 | x8 | x8 | x8 |] %14
V:8
 [B,,B,]8 | [E,,E,]4 [F,,F,]4 | [B,,B,]8 || [F,,F,]8 | B,,4 ^B,,4 | C,4 C,4 | [F,,F,]6 [E,,E,]2 || %7
 [D,,D,]8 | [A,,A,]4 [B,,B,]4 | [F,,F,]8 || [^A,,^A,]8 | [B,,B,]4 [E,,E,]4 | [F,,F,]4 [F,,F,]4 | %13
 [B,,F,B,]8 |] %14

